X:772
T:Tá an Coileach ag Fógairt an Lae
T:
T:When The Cock Crows It Is Day
M:6/8
L:1/8
Z: Contributed 2016-06-05 22:57:30 by Rob Clothier robertclothier@bigpond.com
K:G
D|"G"GAB BAG|(d3 d2) B|GAB BAG|"D"(A3 A2) D|
"G"GAB BAG|Bcd "C"efg|"G"dBG "D"AFD|"G"(G3 G2):|]
d|"G"gdd gdd|"C"(c3 c2) d|"G"gdd gdd|"D"(A3 A2) d|
"G"gdd gdd|"C"Bcd efg|"G"dBG "D"AFD|"G"G3 G2:|]

